svgs/thin/faucet-drip.svg

<svg xmlns="http://www.w3.org/2000/svg" viewBox="0 0 512 512"><!--! Font Awesome Pro 6.3.0 by @fontawesome - https://fontawesome.com License - https://fontawesome.com/license (Commercial License) Copyright 2023 Fonticons, Inc. --><path d="M441.4 419.5c-4.688 6.781-28.06 41.53-28.06 57.88C413.3 496.4 428.9 512 448 512s34.66-15.56 34.66-34.66c0-16.34-23.38-51.09-28.06-57.88C451.6 415.1 444.4 415.1 441.4 419.5zM448 496c-10.28 0-18.66-8.375-18.66-18.66c0-6.75 9.5-24.28 18.66-38.78c9.156 14.5 18.66 32.03 18.66 38.78C466.7 487.6 458.3 496 448 496zM352 192h-38.54c-21.33-18.24-50.05-29.63-81.74-31.32C231.7 160.4 232 160.3 232 160V113.8l134.4 14.16c.5547 .0586 1.105 .0859 1.648 .0859C376.8 127.1 384 120.6 384 111.2V48.89c0-9.416-7.221-16.86-15.99-16.86c-.543 0-1.078 .0596-1.633 .1182L232 47.14V8C232 3.594 228.4 0 224 0S216 3.594 216 8v39.14L81.63 32.14c-.5547-.0586-1.09-.1182-1.633-.1182C71.22 32.03 64 39.47 64 48.89v62.27c0 9.416 7.205 16.84 15.98 16.84c.543 0 1.094-.0273 1.648-.0859L216 113.8V160c0 .2637 .2559 .4199 .2813 .6758C184.6 162.4 155.9 173.8 134.5 192H32C14.33 192 0 206.3 0 224v64c0 17.67 14.33 32 32 32h76.78C129.4 357.7 173 384 224 384s94.63-26.27 115.2-64H352c17.58 0 32.14 14.33 32 31.91C383.9 369.7 398.3 384 416 384h64c17.11 0 31.85-13.51 31.99-30.62C512.7 264.4 440.8 192 352 192zM232 63.25l136-15.17L368.1 112L232 97.67V63.25zM216 97.63L80 111.2L79.85 48.06L216 63.25V97.63zM480 368h-64c-4.275 0-8.305-1.688-11.34-4.752c-3.037-3.062-4.689-7.105-4.654-11.38c.1016-12.64-4.775-24.57-13.74-33.6C377.1 309.1 364.1 304 352 304h-22.29L325.2 312.3C306.7 346.2 267 368 224 368s-82.71-21.85-101.2-55.66L118.3 304H32C23.18 304 16 296.8 16 288V224c0-8.822 7.178-16 16-16h108.5l4.49-3.842C166.2 186 194.3 176 224 176s57.77 10 78.99 28.16L307.5 208H352c38.7 0 75.02 15.13 102.3 42.61c27.24 27.47 42.06 63.92 41.73 102.6C495.9 361.2 488.6 368 480 368z"/></svg>

<svg xmlns="http://www.w3.org/2000/svg" viewBox="0 0 512 512"><!-- Font Awesome Pro 6.0.0-alpha2 by @fontawesome - https://fontawesome.com License - https://fontawesome.com/license (Commercial License) --><path d="M441.406 419.469C436.719 426.25 413.344 461 413.344 477.344C413.344 496.438 428.875 512 448 512S482.656 496.438 482.656 477.344C482.656 461 459.281 426.25 454.594 419.469C451.594 415.094 444.406 415.094 441.406 419.469ZM448 496C437.719 496 429.344 487.625 429.344 477.344C429.344 470.594 438.844 453.062 448 438.562C457.156 453.062 466.656 470.594 466.656 477.344C466.656 487.625 458.281 496 448 496ZM352 192H313.395C292.068 173.756 263.406 162.373 231.719 160.676C231.744 160.42 232 160.264 232 160V113.756L366.375 127.912C366.93 127.971 367.48 127.998 368.023 127.998C376.797 127.998 384 120.578 384 111.162V48.912C384 39.496 376.795 32.076 368.023 32.076C367.48 32.076 366.93 32.104 366.375 32.162L232 47.145V8C232 3.594 228.406 0 224 0S216 3.594 216 8V47.145L81.625 32.162C81.07 32.104 80.52 32.076 79.977 32.076C71.203 32.076 64 39.496 64 48.912V111.162C64 120.578 71.205 127.998 79.977 127.998C80.52 127.998 81.07 127.971 81.625 127.912L216 113.756V160C216 160.264 216.256 160.42 216.281 160.676C184.594 162.373 155.932 173.756 134.605 192H32C14.326 192 0 206.326 0 224V288C0 305.672 14.326 320 32 320H108.791C129.379 357.734 173.025 384 224 384S318.621 357.734 339.209 320H352C369.584 320 384.145 334.152 384.002 351.734C383.855 369.48 398.287 384 416 384H480C497.107 384 511.85 370.49 511.994 353.383C512.746 264.373 440.836 192 352 192ZM232 63.246L368.002 48.08L368 48.912L368.051 112L232 97.666V63.246ZM216 97.629L80 111.162L79.852 48.064L216 63.246V97.629ZM480 368H416C411.725 368 407.695 366.312 404.656 363.248C401.619 360.186 399.967 356.143 400.002 351.865C400.104 339.229 395.227 327.297 386.266 318.264C377.143 309.066 364.973 304 352 304H329.713L325.164 312.338C306.715 346.15 267.006 368 224 368S141.285 346.15 122.836 312.338L118.287 304H32C23.178 304 16 296.822 16 288V224C16 215.178 23.178 208 32 208H140.516L145.006 204.158C166.23 186.001 194.285 176 224 176S281.77 186.001 302.994 204.158L307.484 208H352C390.699 208 427.016 223.131 454.26 250.607C481.5 278.078 496.322 314.531 495.994 353.248C495.928 361.244 488.602 368 480 368Z"/></svg>
